usr/share/icons/biglinux-icons-material/scalable/apps/xmind.svg

<svg width="64" height="64" viewBox="0 0 16.933 16.933" xmlns="http://www.w3.org/2000/svg"><circle cx="8.466" cy="8.46" r="7.144" fill="#df4139" style="paint-order:stroke markers fill"/><path d="M6.63 5.861c-.019 0-.042.003-.067.004-.098.007-1.947.337-2.065.37-.125.036-.23.109-.256.177-.044.118.084.5.252.757.291.443.715.724 1.606 1.068.49.188.591.236.654.307.088.096.016.14-.63.415-1.01.429-1.465.793-1.657 1.33-.059.16-.084.581-.045.687.052.137.084.136 1.06-.042.98-.179 1.025-.189 1.108-.264.066-.062.07-.075.1-.361.015-.163.051-.368.076-.452.058-.197.206-.402.367-.511.612-.413 1.762-.206 2.386.426.234.237.382.491.5.86.067.214.137.307.243.326.098.02.1.02 1.349-.209.693-.126.98-.187 1.023-.219.088-.064.088-.224.001-.488-.15-.456-.41-.785-.892-1.135-.239-.173-.54-.336-1.05-.57-.484-.223-.584-.282-.584-.351 0-.056.06-.082.444-.192.843-.242 1.17-.58 1.17-1.208 0-.275-.052-.497-.138-.568-.112-.097-.231-.1-.702-.018-1.51.26-1.467.251-1.536.36-.037.058-.035.07.032.332.04.15.07.309.07.352a.52.52 0 0 1-.126.303c-.15.135-.491.227-.841.227-.422 0-.74-.14-1.056-.461-.228-.234-.345-.43-.5-.844-.136-.363-.156-.41-.296-.41" fill="#f9f9f9"/></svg>

<?xml version="1.0" encoding="UTF-8" standalone="no"?>
<svg
   width="24"
   height="24"
   viewBox="0 0 24 24"
   fill="none"
   version="1.1"
   id="svg154"
   sodipodi:docname="xmind.svg"
   inkscape:version="1.2.2 (b0a8486541, 2022-12-01)"
   xmlns:inkscape="http://www.inkscape.org/namespaces/inkscape"
   xmlns:sodipodi="http://sodipodi.sourceforge.net/DTD/sodipodi-0.dtd"
   xmlns:xlink="http://www.w3.org/1999/xlink"
   xmlns="http://www.w3.org/2000/svg"
   xmlns:svg="http://www.w3.org/2000/svg"
   xmlns:sketch="http://www.bohemiancoding.com/sketch/ns">
  <sodipodi:namedview
     id="namedview156"
     pagecolor="#ffffff"
     bordercolor="#000000"
     borderopacity="1"
     inkscape:showpageshadow="0"
     inkscape:pageopacity="1"
     inkscape:pagecheckerboard="false"
     inkscape:deskcolor="#ffffff"
     showgrid="true"
     inkscape:zoom="22.627417"
     inkscape:cx="1.4584077"
     inkscape:cy="6.607029"
     inkscape:window-width="1920"
     inkscape:window-height="1052"
     inkscape:window-x="0"
     inkscape:window-y="0"
     inkscape:window-maximized="1"
     inkscape:current-layer="svg154"
     showguides="true"
     guidecolor="#ff0000"
     guideopacity="1"
     inkscape:lockguides="true"
     showborder="true"
     borderlayer="true">
    <inkscape:grid
       type="xygrid"
       id="grid356"
       color="#000000"
       opacity="0.10196078"
       empcolor="#000000"
       empopacity="0.10196078"
       snapvisiblegridlinesonly="true"
       enabled="true"
       visible="true"
       dotted="false" />
    <sodipodi:guide
       position="4,12"
       orientation="-1,0"
       id="guide764"
       inkscape:locked="true"
       inkscape:label="left-circle"
       inkscape:color="rgb(255,0,0)" />
    <sodipodi:guide
       position="5,12"
       orientation="-1,0"
       id="guide2218"
       inkscape:locked="true"
       inkscape:label="left-square"
       inkscape:color="rgb(255,0,0)" />
    <sodipodi:guide
       position="12,20"
       orientation="0,1"
       id="guide2220"
       inkscape:locked="true"
       inkscape:label="top-circle"
       inkscape:color="rgb(255,0,0)" />
    <sodipodi:guide
       position="12,5"
       orientation="0,1"
       id="guide2222"
       inkscape:locked="true"
       inkscape:label="bottom-square"
       inkscape:color="rgb(255,0,0)" />
    <sodipodi:guide
       position="12,4"
       orientation="0,1"
       id="guide2224"
       inkscape:locked="true"
       inkscape:label="bottom-circle"
       inkscape:color="rgb(255,0,0)" />
    <sodipodi:guide
       position="19,12"
       orientation="-1,0"
       id="guide2226"
       inkscape:locked="true"
       inkscape:label="right-square"
       inkscape:color="rgb(255,0,0)" />
    <sodipodi:guide
       position="20,12"
       orientation="-1,0"
       id="guide2228"
       inkscape:locked="true"
       inkscape:label="right-circle"
       inkscape:color="rgb(255,0,0)" />
    <sodipodi:guide
       position="12,19"
       orientation="0,1"
       id="guide2230"
       inkscape:locked="true"
       inkscape:label="top-square"
       inkscape:color="rgb(255,0,0)" />
    <sodipodi:guide
       position="12,12"
       orientation="1,0"
       id="guide765"
       inkscape:locked="true" />
    <sodipodi:guide
       position="12,12"
       orientation="0,-1"
       id="guide767"
       inkscape:locked="true" />
    <sodipodi:guide
       position="12,12"
       orientation="0.70710678,0.70710678"
       id="guide2266"
       inkscape:locked="true"
       inkscape:label=""
       inkscape:color="rgb(255,0,0)" />
    <sodipodi:guide
       position="12,12"
       orientation="-0.70710678,0.70710678"
       id="guide2994"
       inkscape:locked="true"
       inkscape:label=""
       inkscape:color="rgb(255,0,0)" />
    <sodipodi:guide
       position="3,12"
       orientation="-1,0"
       id="guide131543"
       inkscape:locked="true"
       inkscape:label="left-horizontal"
       inkscape:color="rgb(255,0,0)" />
    <sodipodi:guide
       position="12,21"
       orientation="0,1"
       id="guide131545"
       inkscape:locked="true"
       inkscape:label="top-vertical"
       inkscape:color="rgb(255,0,0)" />
    <sodipodi:guide
       position="21,12"
       orientation="-1,0"
       id="guide131547"
       inkscape:locked="true"
       inkscape:label="right-horizontal"
       inkscape:color="rgb(255,0,0)" />
    <sodipodi:guide
       position="12,3"
       orientation="0,1"
       id="guide131549"
       inkscape:locked="true"
       inkscape:label="bottom-vertical"
       inkscape:color="rgb(255,0,0)" />
  </sodipodi:namedview>
  <defs
     id="defs152">
    <radialGradient
       id="radialGradient66380"
       cx="0"
       cy="0"
       r="1"
       gradientUnits="userSpaceOnUse"
       gradientTransform="translate(12 1) rotate(90) scale(22)">
      <stop
         stop-color="#8FC8FF"
         id="stop66376"
         offset="0"
         style="stop-color:#68a8f5;stop-opacity:1;" />
      <stop
         offset="1"
         stop-color="#0056A8"
         id="stop66378"
         style="stop-color:#cccccc;stop-opacity:1;" />
    </radialGradient>
    <radialGradient
       id="paint0_radial_29_23"
       cx="0"
       cy="0"
       r="1"
       gradientUnits="userSpaceOnUse"
       gradientTransform="translate(12 1) rotate(90) scale(22)">
      <stop
         stop-color="#8FC8FF"
         id="stop147"
         offset="0"
         style="stop-color:#f6f6f6;stop-opacity:1;" />
      <stop
         offset="1"
         stop-color="#0056A8"
         id="stop149"
         style="stop-color:#cfcfcf;stop-opacity:1;" />
    </radialGradient>
    <radialGradient
       id="paint0_radial_10_2"
       cx="0"
       cy="0"
       r="1"
       gradientUnits="userSpaceOnUse"
       gradientTransform="matrix(-10.999959,21.999967,-21.999967,-10.999959,17.5,1)"
       xlink:href="#paint0_radial_29_23">
      <stop
         stop-color="#777777"
         id="stop2847" />
      <stop
         offset="1"
         stop-color="#222222"
         id="stop2849" />
    </radialGradient>
  </defs>
  <path
     d="M 50,5 C 9.0909092,5 5,25.454546 5,50 5,82.727274 17.272728,95 50,95 82.727274,95 95,82.727274 95,50 95,25.454546 90.909093,5 50,5 Z"
     sketch:type="MSShapeGroup"
     id="path6"
     style="font-variation-settings:normal;display:inline;opacity:1;vector-effect:none;fill:#df4139;fill-opacity:1;stroke-width:4.56656;stroke-linecap:butt;stroke-linejoin:miter;stroke-miterlimit:4;stroke-dasharray:none;stroke-dashoffset:0;stroke-opacity:1;-inkscape-stroke:none;stop-color:#000000;stop-opacity:1"
     sodipodi:nodetypes="sssss"
     inkscape:label="Shape"
     transform="matrix(0.24444444,0,0,0.24444444,-0.22222222,-0.22222222)" />
  <g
     id="g24454"
     transform="matrix(1.8895899,0,0,1.8895899,-3.998029,-3.9928989)">
    <path
       d="M 6.63,5.861 C 6.611,5.861 6.588,5.864 6.563,5.865 6.465,5.872 4.616,6.202 4.498,6.235 4.373,6.271 4.268,6.344 4.242,6.412 4.198,6.53 4.326,6.912 4.494,7.169 4.785,7.612 5.209,7.893 6.1,8.237 6.59,8.425 6.691,8.473 6.754,8.544 6.842,8.64 6.77,8.684 6.124,8.959 5.114,9.388 4.659,9.752 4.467,10.289 4.408,10.449 4.383,10.87 4.422,10.976 4.474,11.113 4.506,11.112 5.482,10.934 6.462,10.755 6.507,10.745 6.59,10.67 6.656,10.608 6.66,10.595 6.69,10.309 6.705,10.146 6.741,9.941 6.766,9.857 6.824,9.66 6.972,9.455 7.133,9.346 7.745,8.933 8.895,9.14 9.519,9.772 c 0.234,0.237 0.382,0.491 0.5,0.86 0.067,0.214 0.137,0.307 0.243,0.326 0.098,0.02 0.1,0.02 1.349,-0.209 0.693,-0.126 0.98,-0.187 1.023,-0.219 0.088,-0.064 0.088,-0.224 10e-4,-0.488 -0.15,-0.456 -0.41,-0.785 -0.892,-1.135 -0.239,-0.173 -0.54,-0.336 -1.05,-0.57 -0.484,-0.223 -0.584,-0.282 -0.584,-0.351 0,-0.056 0.06,-0.082 0.444,-0.192 0.843,-0.242 1.17,-0.58 1.17,-1.208 0,-0.275 -0.052,-0.497 -0.138,-0.568 C 11.473,5.921 11.354,5.918 10.883,6 9.373,6.26 9.416,6.251 9.347,6.36 9.31,6.418 9.312,6.43 9.379,6.692 c 0.04,0.15 0.07,0.309 0.07,0.352 A 0.52,0.52 0 0 1 9.323,7.347 C 9.173,7.482 8.832,7.574 8.482,7.574 8.06,7.574 7.742,7.434 7.426,7.113 7.198,6.879 7.081,6.683 6.926,6.269 6.79,5.906 6.77,5.859 6.63,5.859"
       fill="#f9f9f9"
       id="path23964" />
  </g>
</svg>
